src/16/places/folder-pictures.svg

<svg width="16.25" xmlns="http://www.w3.org/2000/svg" height="16.25" viewBox="0 0 13 13">
<g style="stroke:#9c7a5f;stroke-width:.8">
<path style="fill:#9c7a5f" d="M 1.566387,10.288936 C 1.3749831,10.269405 1.2148288,10.078001 1.2148288,9.8787848 l 0,-7.7694356 c 0,-0.2148414 0.1874978,-0.4101515 0.3906203,-0.4101515 l 9.5701949,0 c 0.203122,0 0.386714,0.1953101 0.386714,0.4101515 l 0,7.046788 c 0,0.2148413 -0.183592,0.4101512 -0.386714,0.4101512 l -3.7382357,0 0,0.3124964 c 0,0.2148412 -0.1835913,0.4101512 -0.3867138,0.4101512 l -5.4452454,0 c -0.015625,0 -0.027343,0 -0.039062,0 z"/>
<path style="fill:#dfb188" d="M 0.81639618,2.7148102 C 0.59374278,2.7343414 0.40233882,2.9218392 0.406245,3.1249617 l 0,7.7616233 c 0,0.214841 0.21484104,0.410151 0.45702563,0.410151 l 11.27329837,0 c 0.242185,0 0.457026,-0.19531 0.457026,-0.410151 l 0,-7.0428822 c 0,-0.2148413 -0.214841,-0.4101512 -0.457026,-0.4101512 l -4.4022893,0 0,-0.3085899 c 0,-0.2148414 -0.2187472,-0.4101515 -0.4570256,-0.4101515 l -6.41398347,0 c -0.0156247,0 -0.0312497,0 -0.0468745,0 z"/>
</g>
<g style="fill:#9c7a5f">
<g transform="matrix(1.47604 0 0 1.47604 -3.09423 -3.39351)">
<path d="M 4.632812,5.144531 C 4.480469,5.160156 4.351562,5.320312 4.351562,5.492188 l 0,3.648437 C 4.355469,9.320312 4.5,9.480469 4.65625,9.480469 l 3.714844,0 C 8.527344,9.476562 8.664062,9.316406 8.667969,9.140625 l 0,-3.648437 c 0,-0.179688 -0.140625,-0.34375 -0.296875,-0.347657 z m 0.257813,0.542969 3.238281,0 0,2.707031 -3.238281,0 z"/>
</g>
<g style="fill-rule:evenodd" transform="matrix(1.47604 0 0 1.47604 -3.09423 -3.39351)">
<path d="M 4.34375,7.972656 C 4.40625,7.925781 4.550781,7.789062 4.789062,7.558594 5.023438,7.320312 5.335938,7 5.742188,6.574219 6.007812,6.953125 6.203125,7.226562 6.351562,7.40625 c 0.140626,0.175781 0.21875,0.253906 0.238282,0.234375 0.148437,-0.136719 0.277344,-0.25 0.386718,-0.351563 0.105469,-0.097656 0.1875,-0.179687 0.253907,-0.25 C 7.5625,7.457031 7.835938,7.800781 8.078125,8.089844 8.3125,8.375 8.5,8.59375 8.648438,8.753906 l -0.902344,-0.75 C 7.671875,8.195312 7.550781,8.296875 7.378906,8.304688 7.203125,8.308594 6.933594,8.09375 6.714844,8.054688 6.5,8.015625 6.285156,8.136719 6.089844,8.070312 5.894531,8.003906 5.742188,7.726562 5.558594,7.65625 5.375,7.585938 5.1875,7.585938 4.988281,7.65625 4.773438,7.761719 4.5625,7.867188 4.34375,7.972656 z"/>
<path d="M 4.332031,7.828125 C 4.394531,7.78125 4.539062,7.648438 4.773438,7.414062 5.007812,7.175781 5.324219,6.855469 5.730469,6.433594 5.996094,6.808594 6.191406,7.085938 6.335938,7.261719 6.480469,7.441406 6.558594,7.515625 6.578125,7.496094 6.726562,7.363281 6.851562,7.246094 6.960938,7.148438 7.070312,7.046875 7.152344,6.964844 7.21875,6.898438 7.550781,7.3125 7.824219,7.65625 8.066406,7.945312 8.300781,8.234375 8.488281,8.449219 8.636719,8.609375 L 7.734375,7.863281 C 7.660156,8.054688 7.539062,8.152344 7.367188,8.160156 7.191406,8.167969 6.921875,7.949219 6.707031,7.910156 6.488281,7.871094 6.273438,7.996094 6.078125,7.929688 5.882812,7.859375 5.730469,7.585938 5.546875,7.511719 5.359375,7.441406 5.175781,7.441406 4.976562,7.511719 4.761719,7.617188 4.546875,7.722656 4.332031,7.828125 z"/>
</g>
<g transform="matrix(1.47604 0 0 1.47604 -3.09423 -3.39351)">
<path d="m 5.160156,7.582031 2.152344,0 c 0.300781,0 0.542969,0.242188 0.542969,0.542969 l 0,0.269531 C 7.855469,8.695312 7.613281,8.9375 7.3125,8.9375 l -2.152344,0 c -0.296875,0 -0.539062,-0.242188 -0.539062,-0.542969 l 0,-0.269531 c 0,-0.300781 0.242187,-0.542969 0.539062,-0.542969 z"/>
<path d="m 7.855469,8.125 0.269531,0 c 0.148438,0 0.269531,0.121094 0.269531,0.269531 0,0.152344 -0.121093,0.273438 -0.269531,0.273438 l -0.269531,0 c -0.148438,0 -0.269531,-0.121094 -0.269531,-0.273438 0,-0.148437 0.121093,-0.269531 0.269531,-0.269531 z"/>
<path d="m 7.59375,7.886719 0.269531,0 c 0.074219,0 0.132813,0.0625 0.132813,0.136719 l 0,0.269531 c 0,0.074219 -0.058594,0.136719 -0.132813,0.136719 l -0.269531,0 c -0.074219,0 -0.136719,-0.0625 -0.136719,-0.136719 l 0,-0.269531 c 0,-0.074219 0.0625,-0.136719 0.136719,-0.136719 z"/>
</g>
</g>
</svg>

<svg width="16.25" xmlns="http://www.w3.org/2000/svg" height="16.25" viewBox="0 0 13 13">
<g style="stroke:#9c7a5f;stroke-width:.8">
<path style="fill:#9c7a5f" d="M 1.566387,10.288936 C 1.3749831,10.269405 1.2148288,10.078001 1.2148288,9.8787848 l 0,-7.7694356 c 0,-0.2148414 0.1874978,-0.4101515 0.3906203,-0.4101515 l 9.5701949,0 c 0.203122,0 0.386714,0.1953101 0.386714,0.4101515 l 0,7.046788 c 0,0.2148413 -0.183592,0.4101512 -0.386714,0.4101512 l -3.7382357,0 0,0.3124964 c 0,0.2148412 -0.1835913,0.4101512 -0.3867138,0.4101512 l -5.4452454,0 c -0.015625,0 -0.027343,0 -0.039062,0 z"/>
<path style="fill:#dfb188" d="M 0.81639618,2.7148102 C 0.59374278,2.7343414 0.40233882,2.9218392 0.406245,3.1249617 l 0,7.7616233 c 0,0.214841 0.21484104,0.410151 0.45702563,0.410151 l 11.27329837,0 c 0.242185,0 0.457026,-0.19531 0.457026,-0.410151 l 0,-7.0428822 c 0,-0.2148413 -0.214841,-0.4101512 -0.457026,-0.4101512 l -4.4022893,0 0,-0.3085899 c 0,-0.2148414 -0.2187472,-0.4101515 -0.4570256,-0.4101515 l -6.41398347,0 c -0.0156247,0 -0.0312497,0 -0.0468745,0 z"/>
</g>
<g style="fill:#9c7a5f">
<g>
<path d="M 4.632812 5.144531 C 4.480469 5.160156 4.351562 5.320312 4.351562 5.492188 L 4.351562 9.140625 C 4.355469 9.320312 4.5 9.480469 4.65625 9.480469 L 8.371094 9.480469 C 8.527344 9.476562 8.664062 9.316406 8.667969 9.140625 L 8.667969 5.492188 C 8.667969 5.3125 8.527344 5.148438 8.371094 5.144531 Z M 4.890625 5.6875 L 8.128906 5.6875 L 8.128906 8.394531 L 4.890625 8.394531 Z "/>
</g>
<g style="fill-rule:evenodd">
<path d="M 4.34375 7.972656 C 4.40625 7.925781 4.550781 7.789062 4.789062 7.558594 C 5.023438 7.320312 5.335938 7 5.742188 6.574219 C 6.007812 6.953125 6.203125 7.226562 6.351562 7.40625 C 6.492188 7.582031 6.570312 7.660156 6.589844 7.640625 C 6.738281 7.503906 6.867188 7.390625 6.976562 7.289062 C 7.082031 7.191406 7.164062 7.109375 7.230469 7.039062 C 7.5625 7.457031 7.835938 7.800781 8.078125 8.089844 C 8.3125 8.375 8.5 8.59375 8.648438 8.753906 L 7.746094 8.003906 C 7.671875 8.195312 7.550781 8.296875 7.378906 8.304688 C 7.203125 8.308594 6.933594 8.09375 6.714844 8.054688 C 6.5 8.015625 6.285156 8.136719 6.089844 8.070312 C 5.894531 8.003906 5.742188 7.726562 5.558594 7.65625 C 5.375 7.585938 5.1875 7.585938 4.988281 7.65625 C 4.773438 7.761719 4.5625 7.867188 4.34375 7.972656 Z "/>
<path d="M 4.332031 7.828125 C 4.394531 7.78125 4.539062 7.648438 4.773438 7.414062 C 5.007812 7.175781 5.324219 6.855469 5.730469 6.433594 C 5.996094 6.808594 6.191406 7.085938 6.335938 7.261719 C 6.480469 7.441406 6.558594 7.515625 6.578125 7.496094 C 6.726562 7.363281 6.851562 7.246094 6.960938 7.148438 C 7.070312 7.046875 7.152344 6.964844 7.21875 6.898438 C 7.550781 7.3125 7.824219 7.65625 8.066406 7.945312 C 8.300781 8.234375 8.488281 8.449219 8.636719 8.609375 L 7.734375 7.863281 C 7.660156 8.054688 7.539062 8.152344 7.367188 8.160156 C 7.191406 8.167969 6.921875 7.949219 6.707031 7.910156 C 6.488281 7.871094 6.273438 7.996094 6.078125 7.929688 C 5.882812 7.859375 5.730469 7.585938 5.546875 7.511719 C 5.359375 7.441406 5.175781 7.441406 4.976562 7.511719 C 4.761719 7.617188 4.546875 7.722656 4.332031 7.828125 Z "/>
</g>
<g>
<path d="M 5.160156 7.582031 L 7.3125 7.582031 C 7.613281 7.582031 7.855469 7.824219 7.855469 8.125 L 7.855469 8.394531 C 7.855469 8.695312 7.613281 8.9375 7.3125 8.9375 L 5.160156 8.9375 C 4.863281 8.9375 4.621094 8.695312 4.621094 8.394531 L 4.621094 8.125 C 4.621094 7.824219 4.863281 7.582031 5.160156 7.582031 Z "/>
<path d="M 7.855469 8.125 L 8.125 8.125 C 8.273438 8.125 8.394531 8.246094 8.394531 8.394531 C 8.394531 8.546875 8.273438 8.667969 8.125 8.667969 L 7.855469 8.667969 C 7.707031 8.667969 7.585938 8.546875 7.585938 8.394531 C 7.585938 8.246094 7.707031 8.125 7.855469 8.125 Z "/>
<path d="M 7.59375 7.886719 L 7.863281 7.886719 C 7.9375 7.886719 7.996094 7.949219 7.996094 8.023438 L 7.996094 8.292969 C 7.996094 8.367188 7.9375 8.429688 7.863281 8.429688 L 7.59375 8.429688 C 7.519531 8.429688 7.457031 8.367188 7.457031 8.292969 L 7.457031 8.023438 C 7.457031 7.949219 7.519531 7.886719 7.59375 7.886719 Z "/>
</g>
</g>
</svg>
